assets/logos/whatsapp.svg

<svg width="80" height="80" viewBox="0 0 80 80" fill="none" xmlns="http://www.w3.org/2000/svg">
<path d="M62.6752 17.4189C56.6584 11.3486 48.6579 8.0037 40.1339 8C22.5689 8 8.27457 22.407 8.26754 40.1153C8.26549 45.7758 9.73247 51.3013 12.5208 56.1719L8 72.8143L24.8927 68.3485C29.547 70.9076 34.7874 72.2561 40.1202 72.2583H40.1337H40.1339C57.696 72.2583 71.9925 57.8487 72 40.1413C72.0029 31.559 68.6911 23.4896 62.6752 17.4189ZM40.1339 66.8339H40.1236C35.3702 66.8313 30.7088 65.5447 26.643 63.1123L25.6754 62.534L15.6509 65.1839L18.3273 55.3335L17.6969 54.3236C15.0454 50.0731 13.6456 45.1611 13.6476 40.1173C13.6535 25.3988 25.5344 13.4246 40.1439 13.4246C47.2187 13.4276 53.868 16.2078 58.869 21.2533C63.8696 26.2987 66.6215 33.0058 66.6194 40.139C66.6132 54.858 54.7319 66.8339 40.1339 66.8339Z" fill="#E0E0E0"/>
<path d="M9.4613 70.9677L13.7756 55.0855C11.114 50.4373 9.71425 45.1638 9.71593 39.7629C9.72291 22.8639 23.3644 9.11542 40.1256 9.11542C48.2606 9.11912 55.8958 12.311 61.6364 18.1042C67.3783 23.8973 70.5385 31.5976 70.5352 39.7869C70.5282 56.6864 56.8859 70.4361 40.1268 70.4361C40.1256 70.4361 40.1276 70.4361 40.1268 70.4361H40.1133C35.0241 70.4344 30.0234 69.1464 25.5821 66.706L9.4613 70.9677Z" fill="url(#paint0_linear_9912_1365)"/>
<path fill-rule="evenodd" clip-rule="evenodd" d="M32.2577 26.4808C31.6682 25.1593 31.0474 25.1328 30.4865 25.1097C30.0278 25.0899 29.5026 25.0911 28.9782 25.0911C28.4534 25.0911 27.6007 25.2899 26.8795 26.084C26.1579 26.878 24.1244 28.7976 24.1244 32.7017C24.1244 36.6062 26.9451 40.3789 27.3383 40.9088C27.7319 41.4379 32.7833 49.7058 40.7834 52.8865C47.4321 55.5299 48.7851 55.0041 50.2283 54.8718C51.6714 54.7395 54.8849 52.9526 55.5409 51.0995C56.1968 49.2469 56.1968 47.6588 56 47.3269C55.8032 46.9962 55.2785 46.7978 54.4913 46.401C53.7041 46.0041 49.8347 44.0841 49.1131 43.8196C48.3915 43.555 47.8667 43.4228 47.342 44.2172C46.8172 45.0109 45.3096 46.7978 44.8504 47.3269C44.3913 47.8572 43.9321 47.9233 43.1449 47.5265C42.3577 47.1285 39.8228 46.2914 36.8155 43.5881C34.4757 41.4849 32.896 38.8874 32.4369 38.093C31.9777 37.2993 32.3876 36.8695 32.7825 36.4739C33.1359 36.1184 33.5697 35.5475 33.9632 35.0842C34.356 34.6208 34.4872 34.2901 34.7496 33.761C35.012 33.2311 34.8808 32.7677 34.684 32.3709C34.4872 31.9741 32.9575 28.0499 32.2577 26.4808Z" fill="white"/>
<path d="M62.4137 17.3168C56.466 11.3162 48.5574 8.0098 40.1314 8.00604C22.768 8.00604 8.63775 22.2477 8.63077 39.7526C8.62873 45.3482 10.0789 50.8102 12.8352 55.625L8.36633 72.0763L25.0651 67.6617C29.666 70.1914 34.8462 71.5245 40.1178 71.5266H40.1312H40.1314C57.4918 71.5266 71.6241 57.2824 71.6315 39.7782C71.6344 31.2947 68.3606 23.3178 62.4137 17.3168ZM40.1314 66.1646H40.1211C35.4223 66.1621 30.8144 64.8902 26.7953 62.4858L25.8388 61.9141L15.9294 64.5335L18.575 54.7962L17.9518 53.798C15.3308 49.5963 13.9471 44.7406 13.9491 39.7548C13.9549 25.2052 25.6994 13.3685 40.1412 13.3685C47.1348 13.3714 53.7077 16.1197 58.6514 21.1073C63.5946 26.0948 66.3148 32.7249 66.3128 39.7763C66.3066 54.3262 54.5617 66.1646 40.1314 66.1646Z" fill="white"/>
<defs>
<linearGradient id="paint0_linear_9912_1365" x1="39.9983" y1="70.9677" x2="39.9983" y2="9.11552" gradientUnits="userSpaceOnUse">
<stop stop-color="#20B038"/>
<stop offset="1" stop-color="#60D66A"/>
</linearGradient>
</defs>
</svg>

<svg xmlns="http://www.w3.org/2000/svg" width="80" height="80" fill="none" viewBox="0 0 80 80"><path fill="#e0e0e0" d="M62.675 17.419C56.658 11.349 48.658 8.004 40.134 8 22.569 8 8.274 22.407 8.268 40.115a32.26 32.26 0 0 0 4.253 16.057L8 72.814l16.893-4.465a31.64 31.64 0 0 0 15.227 3.91h.014c17.562 0 31.859-14.41 31.866-32.118.003-8.582-3.309-16.651-9.325-22.722M40.134 66.834h-.01a26.3 26.3 0 0 1-13.481-3.722l-.968-.578-10.024 2.65 2.676-9.85-.63-1.01a26.8 26.8 0 0 1-4.05-14.207c.006-14.718 11.887-26.692 26.497-26.692 7.075.003 13.724 2.783 18.725 7.828 5 5.046 7.752 11.753 7.75 18.886-.006 14.719-11.887 26.695-26.485 26.695"/><path fill="url(#a)" d="m9.461 70.968 4.315-15.882a30.8 30.8 0 0 1-4.06-15.323c.007-16.9 13.648-30.648 30.41-30.648 8.135.004 15.77 3.196 21.51 8.99 5.742 5.792 8.902 13.493 8.9 21.682-.008 16.9-13.65 30.65-30.41 30.65q.002 0 0 0h-.013a30.2 30.2 0 0 1-14.53-3.731z"/><path fill="#fff" fill-rule="evenodd" d="M32.258 26.48c-.59-1.32-1.21-1.347-1.772-1.37-.458-.02-.983-.019-1.508-.019s-1.377.199-2.099.993c-.721.794-2.755 2.714-2.755 6.618s2.821 7.677 3.214 8.207c.394.529 5.445 8.797 13.445 11.978 6.65 2.643 8.002 2.117 9.445 1.985 1.443-.133 4.657-1.92 5.313-3.773.656-1.852.656-3.44.459-3.772-.197-.33-.721-.53-1.509-.926-.787-.397-4.656-2.317-5.378-2.581-.721-.265-1.246-.397-1.771.397s-2.032 2.58-2.492 3.11-.918.596-1.705.2c-.787-.398-3.322-1.236-6.33-3.939-2.34-2.103-3.919-4.7-4.378-5.495s-.05-1.224.346-1.62c.353-.355.787-.925 1.18-1.389s.524-.794.787-1.323c.262-.53.13-.993-.066-1.39-.197-.397-1.726-4.321-2.426-5.89" clip-rule="evenodd"/><path fill="#fff" d="M62.414 17.317c-5.948-6-13.857-9.307-22.283-9.311-17.363 0-31.493 14.242-31.5 31.747a31.9 31.9 0 0 0 4.204 15.872L8.366 72.076l16.7-4.414a31.3 31.3 0 0 0 15.052 3.865h.013c17.36 0 31.493-14.245 31.5-31.749.003-8.483-3.27-16.46-9.217-22.461M40.13 66.165h-.01a26 26 0 0 1-13.326-3.68l-.956-.57-9.91 2.619 2.646-9.738-.623-.998a26.5 26.5 0 0 1-4.003-14.043c.006-14.55 11.75-26.387 26.192-26.387 6.994.003 13.567 2.752 18.51 7.74 4.944 4.987 7.664 11.617 7.662 18.668-.006 14.55-11.751 26.389-26.182 26.389"/><defs><linearGradient id="a" x1="39.998" x2="39.998" y1="70.968" y2="9.116" gradientUnits="userSpaceOnUse"><stop stop-color="#20b038"/><stop offset="1" stop-color="#60d66a"/></linearGradient></defs></svg>
